X:34
T:Royal Grove. THO5.034, The
M:2/4
L:1/8
B:Thompson's Complete Collection of 200 Favourite Dances Vol.5
F:https://www.libraryofdance.org/manuals/1780c-Thompson-Compleat-5.pdf
Z:vmp. Peter Dunk 2024
Q:1/4=120
K:G
d|gdbg|afed|gdec|(B/c/B/A/) Gd|
gdbg|afed|(e/f/e/d/) (^c/d/e/c/)|d3:|
|:d/c/|BdgB|Acac|BdgB|(A/G/F/E/) Dd|
BGdB|gdgd|ebaf|g3:|
W:
W:Half figure on the contrary side and Allemand ./.
W:figure up on your own side and Allemend ./:
W:cross over two Couples :/.
W:lead up with Allemand passe & cast off :/:

